icons/rss3-dsl.svg

<svg width="99" height="100" viewBox="0 0 99 100" fill="none" xmlns="http://www.w3.org/2000/svg">
<g clip-path="url(#clip0_4890_2342)">
<path d="M93.0601 0H5.15391C2.30749 0 0 2.30376 0 5.1456V94.2661C0 97.1079 2.30749 99.4117 5.15391 99.4117H93.0601C95.9065 99.4117 98.214 97.1079 98.214 94.2661V5.1456C98.214 2.30376 95.9065 0 93.0601 0Z" fill="#1477FB"/>
<path d="M80.5543 32.4013L74.8104 32.4013C70.5623 32.4013 67.1119 28.9553 67.1119 24.6904L67.1119 18.6775C67.1119 17.7386 66.3541 16.9795 65.4167 16.9795L31.7609 16.9795L17.8997 16.9795C16.8327 16.9795 15.9751 17.8485 15.9751 18.9072L15.9751 31.8419C15.9751 32.8907 16.8227 33.7497 17.8798 33.7497L35.2611 33.7497L58.7155 33.7497C62.9636 33.7497 66.4139 37.1956 66.4139 41.4606L66.4139 49.571L66.4139 49.7208L66.4139 49.8706L66.4139 57.9811C66.4139 62.236 62.9735 65.682 58.7254 65.682L35.2711 65.682L17.8897 65.682C16.8427 65.682 15.9851 66.531 15.9851 67.5897L15.9851 80.5244C15.9851 81.5932 16.8526 82.4521 17.9097 82.4521L31.7709 82.4521L65.4267 82.4521C66.364 82.4521 67.1219 81.693 67.1219 80.7542L67.1219 74.7413C67.1219 70.4863 70.5623 67.0304 74.8204 67.0304L80.5643 67.0304C81.5017 67.0304 82.2595 66.2713 82.2595 65.3324L82.2595 49.7008L82.2595 34.0693C82.2595 33.1304 81.5017 32.3713 80.5643 32.3713L80.5543 32.4013Z" fill="white"/>
</g>
<defs>
<clipPath id="clip0_4890_2342">
<rect width="98.214" height="99.4117" fill="white"/>
</clipPath>
</defs>
</svg>

<svg xmlns="http://www.w3.org/2000/svg" fill="none" viewBox="0 0 99 100"><g clip-path="url(#rss3-dsl_svg__a)"><path fill="#1477FB" d="M93.06 0H5.154A5.15 5.15 0 0 0 0 5.146v89.12a5.15 5.15 0 0 0 5.154 5.146H93.06a5.15 5.15 0 0 0 5.154-5.146V5.146A5.15 5.15 0 0 0 93.06 0"/><path fill="#fff" d="M80.554 32.401H74.81c-4.248 0-7.698-3.446-7.698-7.71v-6.014c0-.938-.758-1.697-1.695-1.697H17.9a1.927 1.927 0 0 0-1.925 1.927v12.935c0 1.049.848 1.908 1.905 1.908h40.835c4.249 0 7.699 3.446 7.699 7.71v16.521c0 4.255-3.44 7.701-7.689 7.701H17.89a1.906 1.906 0 0 0-1.905 1.908v12.934c0 1.07.868 1.928 1.925 1.928h47.517c.937 0 1.695-.759 1.695-1.698v-6.013c0-4.255 3.44-7.71 7.698-7.71h5.744c.938 0 1.696-.76 1.696-1.699V34.07c0-.939-.758-1.698-1.696-1.698z"/></g><defs><clipPath id="rss3-dsl_svg__a"><path fill="#fff" d="M0 0h98.214v99.412H0z"/></clipPath></defs></svg>
